X: 840
T: Fair and Forty   #2
R: hornpipe
%S: s:2 b:16(4+4+4+4)
B: Francis O'Neill: "The Dance Music of Ireland" (1907) #840
Z: Frank Nordberg - http://www.musicaviva.com
F: http://www.musicaviva.com/abc/tunes/ireland/oneill-1001/0840/oneill-1001-0840-1.abc
M: C|
L: 1/8
K: G
"^A"[|] D2 |: (3.G.G.G BG d2BG | efgf edBd | ceAc BdGB |[1,3 ABcA GFED :|[2,4 cAFA G2 :|
"^B"|:  d2 |: gfga bgdg | edef gdB [1,3 d | gfga bgdg | edcB A2(Bd) :|[2,4 G | DGBd gdBd | cAFA G2 :|
